assets/burger.svg

<svg fill="none" height="18" viewBox="0 0 24 18" width="24" xmlns="http://www.w3.org/2000/svg"><path d="m24 9c0 .26522-.1054.51957-.2929.70711-.1875.18753-.4419.29289-.7071.29289h-22c-.265216 0-.51957-.10536-.707107-.29289-.187536-.18754-.292893-.44189-.292893-.70711s.105357-.51957.292893-.70711c.187537-.18753.441891-.29289.707107-.29289h22c.2652 0 .5196.10536.7071.29289.1875.18754.2929.44189.2929.70711zm-23-7h22c.2652 0 .5196-.10536.7071-.29289.1875-.18754.2929-.44189.2929-.70711 0-.265216-.1054-.51957-.2929-.707107-.1875-.187536-.4419-.292893-.7071-.292893h-22c-.265216 0-.51957.105357-.707107.292893-.187536.187537-.292893.441891-.292893.707107 0 .26522.105357.51957.292893.70711.187537.18753.441891.29289.707107.29289zm22 14h-22c-.265216 0-.51957.1054-.707107.2929-.187536.1875-.292893.4419-.292893.7071s.105357.5196.292893.7071c.187537.1875.441891.2929.707107.2929h22c.2652 0 .5196-.1054.7071-.2929s.2929-.4419.2929-.7071-.1054-.5196-.2929-.7071-.4419-.2929-.7071-.2929z" fill="#131117"/></svg>

<svg width="24" height="18" viewBox="0 0 24 18" fill="none" xmlns="http://www.w3.org/2000/svg">
<path d="M24 9C24 9.26522 23.8946 9.51957 23.7071 9.70711C23.5196 9.89464 23.2652 10 23 10H1C0.734784 10 0.48043 9.89464 0.292893 9.70711C0.105357 9.51957 0 9.26522 0 9C0 8.73478 0.105357 8.48043 0.292893 8.29289C0.48043 8.10536 0.734784 8 1 8H23C23.2652 8 23.5196 8.10536 23.7071 8.29289C23.8946 8.48043 24 8.73478 24 9ZM1 2H23C23.2652 2 23.5196 1.89464 23.7071 1.70711C23.8946 1.51957 24 1.26522 24 1C24 0.734784 23.8946 0.48043 23.7071 0.292893C23.5196 0.105357 23.2652 0 23 0H1C0.734784 0 0.48043 0.105357 0.292893 0.292893C0.105357 0.48043 0 0.734784 0 1C0 1.26522 0.105357 1.51957 0.292893 1.70711C0.48043 1.89464 0.734784 2 1 2ZM23 16H1C0.734784 16 0.48043 16.1054 0.292893 16.2929C0.105357 16.4804 0 16.7348 0 17C0 17.2652 0.105357 17.5196 0.292893 17.7071C0.48043 17.8946 0.734784 18 1 18H23C23.2652 18 23.5196 17.8946 23.7071 17.7071C23.8946 17.5196 24 17.2652 24 17C24 16.7348 23.8946 16.4804 23.7071 16.2929C23.5196 16.1054 23.2652 16 23 16Z" fill="#131117"/>
</svg>
